symbolic/16x16/apps/info.febvre.Komikku.svg

<svg xmlns="http://www.w3.org/2000/svg" width="16" height="16" version="1.1">
 <path style="fill:#b2bfd9" d="M 15,14 V 16 H 3.2 C 2.5352,16 2,15.465 2,14.8 V 13 Z"/>
 <path style="fill:#ee4035" d="M 3.2,0 H 15 V 14 H 3.2 C 2.5352,14 2,13.465 2,12.8 V 1.2 C 2,0.5352 2.5352,0 3.2,0 Z"/>
 <path style="fill:#f4f4f7" d="M 6.2103,3.9421 C 6.0344,3.8316 5.9627,3.7428 6.0187,3.7048 6.0431,3.6883 6.3769,3.6621 6.7603,3.6467 7.2938,3.6253 7.6281,3.5757 8.1843,3.4354 9.2657,3.1625 9.366,3.1514 9.6012,3.2777 9.9926,3.4878 10.095,3.6743 9.912,3.8429 9.7924,3.9529 9.6851,3.961 7.9469,3.9902 6.7011,4.0111 6.3027,4.0001 6.2103,3.9421 Z M 5.1116,10.188 5.0047,9.9752 5.0096,8.1079 C 5.0148,6.1124 5.0035,5.9239 4.8621,5.6384 4.6612,5.2332 4.9795,5.049 5.3657,5.347 5.5598,5.4967 5.5598,5.4969 5.58,5.8011 5.608,6.2224 5.6063,7.9413 5.5769,9.0972 5.5476,10.245 5.519,10.4 5.3362,10.4 5.2468,10.4 5.1927,10.349 5.1116,10.188 Z M 6.22,9.0632 C 6.1569,8.7804 6.1215,8.1774 6.0995,7.0059 6.0793,5.9279 6.0698,5.7796 6.0085,5.5807 5.9708,5.4586 5.94,5.3407 5.94,5.3187 5.94,5.2255 6.1956,5.2888 6.2661,5.3995 6.3259,5.4935 6.3892,5.5113 6.5506,5.4796 6.6648,5.4571 7.4252,5.3331 8.045,5.204 9.5834,4.8836 10.033,4.9303 10.097,5.4174 10.107,5.4946 10.089,5.7198 10.056,5.9179 9.9638,6.4681 9.4708,8.8889 9.4418,8.9319 9.4277,8.9528 8.8014,8.9884 8.0499,9.0111 7.2236,9.036 6.5007,9.0818 6.4655,9.1271 6.3726,9.2463 6.254,9.2154 6.22,9.0632 Z M 7.5083,8.5656 C 7.5788,8.5202 7.6295,8.2114 7.6633,7.6214 7.679,7.3455 7.6731,7.2713 7.6323,7.2338 7.6046,7.2083 7.4129,7.2298 7.2063,7.2816 6.737,7.3993 6.5407,7.4608 6.5729,8.0806 6.5849,8.3105 6.6106,8.5231 6.6301,8.553 6.6717,8.6168 7.4129,8.627 7.5083,8.5656 Z M 9.0601,8.1011 C 9.1663,7.6391 9.3444,6.3462 9.3642,5.8933 9.3804,5.5235 9.3778,5.5066 9.2978,5.4585 9.1689,5.381 8.5337,5.4673 8.4392,5.5752 8.3922,5.6288 8.3271,5.8084 8.2925,5.9797 8.1843,6.5154 8.187,6.5208 8.5685,6.549 8.7851,6.5651 8.9205,6.6073 8.9452,6.6666 9.0117,6.8264 8.9316,6.9166 8.6582,6.9902 8.2919,7.0888 8.2673,7.108 8.2191,7.3339 8.1535,7.6411 8.1278,8.1309 8.1678,8.3102 8.2007,8.4578 8.2232,8.4649 8.5941,8.4453 L 8.9857,8.4246 Z M 7.1817,6.8755 C 7.6383,6.7391 7.6545,6.7233 7.6342,6.4336 L 7.5854,6.0004 C 7.5532,5.8009 7.5475,5.7969 7.2971,5.7986 6.9915,5.8008 6.6505,5.8904 6.5969,6.066 6.5456,6.2345 6.5449,6.8827 6.5961,6.9322 6.6534,6.9876 6.8011,6.9892 7.1817,6.8755 Z M 10.572,10.481 C 10.553,10.438 10.538,10.365 10.538,10.319 10.538,10.273 10.502,10.183 10.459,10.119 10.386,10.01 10.241,10.003 8.2367,10.003 6.4841,10.003 6.08,9.9865 6.0235,9.9137 5.93,9.7932 5.9829,9.7255 6.2075,9.6782 6.5102,9.6145 8.9844,9.4344 9.7717,9.4188 10.187,9.4106 10.54,9.3841 10.557,9.3601 10.588,9.3173 10.913,7.777 10.913,7.777 10.913,7.777 10.995,7.1718 11.027,6.7939 11.094,5.9954 11.124,5.8386 11.212,5.8387 11.284,5.8387 11.627,6.1903 11.7,6.3385 11.738,6.4171 11.742,6.4855 11.72,6.7042 11.661,7.3026 11.243,9.3194 11.059,9.8952 10.896,10.403 10.662,10.685 10.572,10.481 Z"/>
</svg>

<svg xmlns="http://www.w3.org/2000/svg" width="16" height="16"><path style="fill:#b2bfd9" d="M15 14v2H3.2c-.665 0-1.2-.535-1.2-1.2V13z"/><path style="fill:#ee4035" d="M3.2 0H15v14H3.2c-.665 0-1.2-.535-1.2-1.2V1.2C2 .535 2.535 0 3.2 0z"/><path style="fill:#f4f4f7" d="M6.21 3.942c-.176-.11-.247-.2-.191-.237.024-.017.358-.043.741-.058a6.064 6.064 0 0 0 1.424-.212c1.082-.272 1.182-.284 1.417-.157.392.21.494.396.311.565-.12.11-.227.118-1.965.147C6.7 4.011 6.303 4 6.21 3.942zm-1.098 6.246-.107-.213.005-1.867c.005-1.996-.006-2.184-.148-2.47-.2-.405.117-.589.504-.291.194.15.194.15.214.454.028.421.026 2.14-.003 3.296-.03 1.148-.058 1.303-.24 1.303-.09 0-.144-.051-.225-.212zM6.22 9.063c-.063-.283-.098-.886-.12-2.057-.02-1.078-.03-1.226-.091-1.425a2.004 2.004 0 0 1-.069-.262c0-.093.256-.03.326.08.06.095.123.112.285.08.114-.022.874-.146 1.494-.275 1.538-.32 1.988-.274 2.052.213.01.078-.008.303-.041.5-.092.551-.585 2.972-.614 3.015-.014.02-.64.056-1.392.08-.826.024-1.55.07-1.585.115-.092.12-.211.088-.245-.064zm1.288-.497c.07-.046.122-.355.155-.945.016-.276.01-.35-.03-.387-.028-.026-.22-.004-.427.048-.469.117-.665.179-.633.799.012.23.038.442.057.472.042.064.783.074.878.013zM9.06 8.1c.106-.462.284-1.755.304-2.208.016-.37.014-.386-.066-.434-.13-.078-.764.008-.859.116-.047.054-.112.233-.146.405-.109.535-.106.54.276.569.216.016.351.058.376.118.067.16-.013.25-.287.323-.366.099-.39.118-.439.344-.066.307-.091.797-.051.976.033.148.055.155.426.135l.392-.02zM7.182 6.875c.456-.136.472-.152.452-.441L7.585 6c-.032-.2-.037-.203-.288-.201-.305.002-.646.091-.7.267-.051.168-.052.817 0 .866.056.056.204.057.585-.057zm3.39 3.606a.479.479 0 0 1-.034-.162.462.462 0 0 0-.079-.2c-.073-.109-.218-.116-2.222-.116-1.753 0-2.157-.017-2.213-.09-.094-.12-.041-.188.183-.235.303-.064 2.777-.244 3.565-.26.415-.007.768-.034.785-.058.031-.043.356-1.583.356-1.583s.082-.605.114-.983c.067-.799.097-.955.185-.955.072 0 .415.351.488.5.038.078.042.146.02.365-.059.599-.477 2.615-.661 3.191-.163.508-.397.79-.487.586z"/></svg>
